X:1
T:Decalogue, 87.87 D
T:Decalogue, 87.87 D
T:W. A. Greenhaw, 1922
T:Public Domain Courtesy of the Cyber Hymnal™
C:W. A. Greenhaw, 1922
Z:Public Domain
Z:Courtesy of the Cyber Hymnal™
%%score ( 1 2 ) ( 3 4 )
L:1/8
Q:1/4=95
M:4/4
K:G
V:1 treble 
V:2 treble 
V:3 bass 
V:4 bass 
V:1
 [GB]3 [GB] [GB][GA][DG][DA] | [GB][Gd-] d4 z2 | [Gd]3 [Gd] [GB][GB]GG | A6 GA | %4
 [GB]3 [GB] [GB][GA][DG][DA] | [GB][Gd-] d4 z2 | [Gd]3 [Gd] [GB]G[GB][FA] | G6 z2 | %8
 [Gd]3 [Gd] [GB][DG][GB][Gd] | [Ge][Gd-] d4 z2 | [GB]3 [GB] [Gd][GB]GG | A6 GB | %12
 [Gd]3 [Gd] [GB][DG][GB][Gd] | [Ge][Gd-] d4 z2 | [Gd]3 [Gd] [GB]G[GB][FA] | G3 D2 z2 x |] %16
V:2
 x8 | x2 (FFGG) x2 | x6 GG | FFFF F2 x2 | x8 | x2 (FFGG) x2 | x5 G x2 | (GEDE D2) x2 | x8 | %9
 x2 (FFGG) x2 | x6 GG | FFFF F2 x2 | x8 | x2 (FFGG) x2 | x5 G x2 | GEDE x4 |] %16
V:3
 [G,D]3 [G,D] [G,D][G,C][G,B,][G,C] | [G,D][G,B,] ([D,A,][D,A,][G,B,][G,B,]B,,D,) | %2
 [G,B,]3 [G,B,] [G,D][G,D][E,^C][E,C] | ([D,D][D,D][D,D][D,D] [D,D]2) z2 | %4
 [G,D]3 [G,D] [G,D][G,C][G,B,][G,C] | [G,D][G,B,] ([D,A,][D,A,][G,B,][G,B,]B,,D,) | %6
 [G,B,]3 [G,B,] [G,D][B,,D][D,D][D,C] | (B,^A,B,C B,2) z2 | [G,B,]3 [G,B,] [G,D][G,B,][G,D][G,B,] | %9
 [G,C][G,B,] ([D,A,][D,A,][G,B,][G,B,]B,,D,) | [G,D]3 [G,D] [G,B,][G,D][E,^C][E,C] | %11
 ([D,D][D,D][D,D][D,D] [D,D]2) z2 | [G,B,]3 [G,B,] [G,D][G,B,][G,D][G,B,] | %13
 [G,C][G,B,] ([D,A,][D,A,][G,B,][G,B,]B,,D,) | [G,B,]3 [G,B,] [G,D][B,,D][D,D][D,C] | %15
 (B,^A,B,C B,2) z2 |] %16
V:4
 x8 | x8 | x8 | x8 | x8 | x8 | x8 | G,,6 x2 | x8 | x8 | x8 | x8 | x8 | x8 | x8 | G,,3 x5 |] %16

